assets/Keycap 7/Flat/keycap_7_flat.svg

<svg width="32" height="32" viewBox="0 0 32 32" fill="none" xmlns="http://www.w3.org/2000/svg">
<path d="M2 6C2 3.79086 3.79086 2 6 2H26C28.2091 2 30 3.79086 30 6V26C30 28.2091 28.2091 30 26 30H6C3.79086 30 2 28.2091 2 26V6Z" fill="#00A6ED"/>
<path d="M11.0383 9.72241C11.0383 8.75591 11.8218 7.97241 12.7883 7.97241H20.2623C20.8861 7.97241 21.4627 8.30445 21.7758 8.84395C22.089 9.38345 22.0912 10.0488 21.7818 10.5905L14.5292 23.2861C14.0497 24.1253 12.9808 24.417 12.1416 23.9376C11.3024 23.4581 11.0107 22.3892 11.4901 21.55L17.2471 11.4724H12.7883C11.8218 11.4724 11.0383 10.6889 11.0383 9.72241Z" fill="white"/>
</svg>

<svg xmlns="http://www.w3.org/2000/svg" width="32" height="32" fill="none"><path fill="#00A6ED" d="M2 6a4 4 0 0 1 4-4h20a4 4 0 0 1 4 4v20a4 4 0 0 1-4 4H6a4 4 0 0 1-4-4V6Z"/><path fill="#fff" d="M11.038 9.722c0-.966.784-1.75 1.75-1.75h7.474a1.75 1.75 0 0 1 1.52 2.619l-7.253 12.695a1.75 1.75 0 0 1-3.039-1.736l5.757-10.078h-4.459a1.75 1.75 0 0 1-1.75-1.75Z"/></svg>
